jsapp/svg-icons/qt-question-matrix.svg

<svg height="642" viewBox="0 0 642 642" width="642" xmlns="http://www.w3.org/2000/svg"><path d="m529 96.74h-416c-26.509668 0-48 21.490332-48 48v352c0 26.509668 21.490332 48 48 48h416c26.509668 0 48-21.490332 48-48v-352c0-26.509668-21.490332-48-48-48zm-240 384h-160v-96h160zm0-160h-160v-96h160zm224 160h-160v-96h160zm0-160h-160v-96h160z"/></svg>

<svg id="Layer_1" data-name="Layer 1" xmlns="http://www.w3.org/2000/svg" viewBox="0 0 642 642"><path d="M529,96.74H113a48,48,0,0,0-48,48v352a48,48,0,0,0,48,48H529a48,48,0,0,0,48-48v-352A48,48,0,0,0,529,96.74Zm-240,384H129v-96H289Zm0-160H129v-96H289Zm224,160H353v-96H513Zm0-160H353v-96H513Z"/></svg>
